dist/img/programms/skills_1.svg

<svg width="800" height="291" viewBox="0 0 800 291" fill="none" xmlns="http://www.w3.org/2000/svg">
<path d="M135.707 115.603L135.707 263.089C135.707 268.612 140.184 273.089 145.707 273.089L391.257 273.089C396.779 273.089 401.257 268.612 401.257 263.089L401.257 87.102C401.257 77.9511 412.53 73.6069 418.671 80.3914L575.675 253.851C581.816 260.635 593.089 256.291 593.089 247.14L593.089 71.1523C593.089 65.6295 597.566 61.1523 603.089 61.1523L800 61.1523" stroke="#04412B" stroke-dasharray="6 6"/>
<path d="M80.5563 55.9886C113.326 47.7907 124.249 55.9884 135.173 69.6425C146.096 55.9883 157.02 47.7908 189.789 55.9886V80.5578H217.102C225.301 113.328 217.102 124.252 203.448 135.175C217.102 146.098 225.3 157.021 217.102 189.791H189.79L189.79 217.103C157.021 225.301 146.097 217.103 135.174 203.449C124.251 217.103 113.327 225.3 80.5577 217.103L80.557 189.794H56.5181C48.3203 157.025 56.5179 146.101 70.1721 135.178C56.5179 124.254 48.3203 113.331 56.5181 80.5613H80.5556L80.5563 55.9886Z" fill="#FBF9F0"/>
<path d="M80.5563 55.9886L80.435 55.5036L80.0563 55.5983L80.0563 55.9886L80.5563 55.9886ZM135.173 69.6425L134.782 69.9549L135.173 70.4429L135.563 69.9549L135.173 69.6425ZM189.789 55.9886H190.289L190.289 55.5983L189.91 55.5036L189.789 55.9886ZM189.789 80.5578H189.289L189.289 81.0578L189.789 81.0578V80.5578ZM217.102 80.5578L217.588 80.4365L217.493 80.0578H217.102V80.5578ZM203.448 135.175L203.136 134.784L202.647 135.175L203.136 135.565L203.448 135.175ZM217.102 189.791V190.291H217.492L217.587 189.913L217.102 189.791ZM189.79 189.791V189.291L189.29 189.291L189.29 189.791L189.79 189.791ZM189.79 217.103L189.912 217.588L190.291 217.493L190.29 217.103L189.79 217.103ZM135.174 203.449L135.565 203.136L135.174 202.648L134.784 203.136L135.174 203.449ZM80.5577 217.103L80.0577 217.103L80.0577 217.493L80.4363 217.588L80.5577 217.103ZM80.557 189.794L81.057 189.794L81.057 189.294H80.557V189.794ZM56.5181 189.794L56.0331 189.915L56.1278 190.294L56.5181 190.294V189.794ZM70.1721 135.178L70.4844 135.568L70.9725 135.178L70.4844 134.787L70.1721 135.178ZM56.5181 80.5613V80.0613H56.1278L56.0331 80.4399L56.5181 80.5613ZM80.5556 80.5613V81.0613L81.0556 81.0613L81.0556 80.5613L80.5556 80.5613ZM80.6777 56.4737C97.0211 52.385 107.836 52.4072 115.899 55.0954C123.952 57.7802 129.338 63.1497 134.782 69.9549L135.563 69.3302C130.084 62.4812 124.547 56.9247 116.215 54.1467C107.893 51.372 96.8611 51.3943 80.435 55.5036L80.6777 56.4737ZM135.563 69.9549C141.007 63.1497 146.394 57.7802 154.447 55.0954C162.51 52.4072 173.324 52.3851 189.668 56.4737L189.91 55.5036C173.484 51.3943 162.453 51.3721 154.13 54.1467C145.798 56.9247 140.261 62.4811 134.782 69.3302L135.563 69.9549ZM189.289 55.9886L189.289 80.5578H190.289L190.289 55.9886H189.289ZM189.789 81.0578L217.102 81.0578V80.0578L189.789 80.0578V81.0578ZM216.617 80.6792C220.706 97.0228 220.684 107.838 217.996 115.901C215.311 123.954 209.941 129.34 203.136 134.784L203.76 135.565C210.609 130.086 216.166 124.549 218.944 116.217C221.719 107.895 221.697 96.8628 217.588 80.4365L216.617 80.6792ZM203.136 135.565C209.941 141.009 215.31 146.396 217.995 154.449C220.683 162.512 220.705 173.326 216.617 189.67L217.587 189.913C221.696 173.486 221.718 162.455 218.944 154.133C216.166 145.8 210.609 140.264 203.76 134.784L203.136 135.565ZM217.102 189.291L189.79 189.291V190.291L217.102 190.291V189.291ZM189.29 189.791L189.29 217.103L190.29 217.103L190.29 189.791L189.29 189.791ZM189.669 216.618C173.326 220.706 162.511 220.684 154.448 217.996C146.395 215.311 141.009 209.942 135.565 203.136L134.784 203.761C140.263 210.61 145.799 216.167 154.132 218.945C162.454 221.719 173.486 221.697 189.912 217.588L189.669 216.618ZM134.784 203.136C129.34 209.942 123.953 215.311 115.9 217.996C107.837 220.684 97.0225 220.706 80.679 216.618L80.4363 217.588C96.8625 221.697 107.894 221.719 116.216 218.945C124.549 216.167 130.085 210.61 135.565 203.761L134.784 203.136ZM81.0577 217.103L81.057 189.794L80.057 189.794L80.0577 217.103L81.0577 217.103ZM80.557 189.294L56.5181 189.294V190.294L80.557 190.294V189.294ZM57.0032 189.673C52.9146 173.329 52.9367 162.515 55.6249 154.452C58.3098 146.399 63.6793 141.012 70.4844 135.568L69.8597 134.787C63.0107 140.266 57.4543 145.803 54.6763 154.135C51.9016 162.458 51.9238 173.489 56.0331 189.915L57.0032 189.673ZM70.4844 134.787C63.6793 129.343 58.3098 123.956 55.6249 115.904C52.9367 107.841 52.9146 97.026 57.0032 80.6826L56.0331 80.4399C51.9238 96.866 51.9016 107.898 54.6763 116.22C57.4543 124.552 63.0107 130.089 69.8597 135.568L70.4844 134.787ZM56.5181 81.0613L80.5556 81.0613V80.0613L56.5181 80.0613V81.0613ZM81.0556 80.5613L81.0563 55.9886L80.0563 55.9886L80.0556 80.5612L81.0556 80.5613Z" fill="#04412B"/>
<circle cx="403.77" cy="89.6339" r="46.411" fill="#FBF9F0" stroke="#04412B"/>
<circle cx="579.686" cy="243.77" r="46.411" fill="#FBF9F0" stroke="#04412B"/>
</svg>

<svg width="800" height="291" viewBox="0 0 800 291" fill="none" xmlns="http://www.w3.org/2000/svg"><path d="M135.707 115.603v147.486c0 5.523 4.477 10 10 10h245.55c5.522 0 10-4.477 10-10V87.102c0-9.15 11.273-13.495 17.414-6.71L575.675 253.85c6.141 6.784 17.414 2.44 17.414-6.711V71.152c0-5.523 4.477-10 10-10H800" stroke="#04412B" stroke-dasharray="6 6"/><path d="M80.556 55.989c32.77-8.198 43.693 0 54.617 13.654 10.923-13.655 21.847-21.852 54.616-13.654v24.569h27.313c8.199 32.77 0 43.694-13.654 54.617 13.654 10.923 21.852 21.846 13.654 54.616H189.79v27.312c-32.769 8.198-43.693 0-54.616-13.654-10.923 13.654-21.847 21.851-54.616 13.654l-.001-27.309H56.518c-8.198-32.769 0-43.693 13.654-54.616-13.654-10.924-21.852-21.847-13.654-54.617h24.038V55.99z" fill="#FBF9F0"/><path d="M80.556 55.989l-.121-.485-.379.094v.39h.5zm54.617 13.654l-.391.312.391.488.39-.488-.39-.313zm54.616-13.654h.5v-.39l-.379-.095-.121.485zm0 24.569h-.5v.5h.5v-.5zm27.313 0l.486-.122-.095-.378h-.391v.5zm-13.654 54.617l-.312-.391-.489.391.489.39.312-.39zm13.654 54.616v.5h.39l.095-.378-.485-.122zm-27.312 0v-.5h-.5v.5h.5zm0 27.312l.122.485.379-.095-.001-.39h-.5zm-54.616-13.654l.391-.313-.391-.488-.39.488.39.313zm-54.616 13.654h-.5v.39l.378.095.122-.485zm-.001-27.309h.5v-.5h-.5v.5zm-24.039 0l-.485.121.095.379h.39v-.5zm13.654-54.616l.312.39.489-.39-.489-.391-.312.391zM56.518 80.561v-.5h-.39l-.095.379.485.121zm24.038 0v.5h.5v-.5h-.5zm.122-24.087c16.343-4.089 27.158-4.067 35.221-1.379 8.053 2.685 13.439 8.055 18.883 14.86l.781-.625c-5.479-6.849-11.016-12.405-19.348-15.183-8.322-2.775-19.354-2.753-35.78 1.357l.243.97zm54.885 13.48c5.444-6.804 10.831-12.174 18.884-14.859 8.063-2.688 18.877-2.71 35.221 1.379l.242-.97c-16.426-4.11-27.457-4.132-35.78-1.357-8.332 2.778-13.869 8.334-19.348 15.183l.781.625zm53.726-13.965v24.569h1v-24.57h-1zm.5 25.069h27.313v-1h-27.313v1zm26.828-.379c4.089 16.344 4.067 27.159 1.379 35.222-2.685 8.053-8.055 13.439-14.86 18.883l.624.781c6.849-5.479 12.406-11.016 15.184-19.348 2.775-8.322 2.753-19.354-1.356-35.78l-.971.242zm-13.481 54.886c6.805 5.444 12.174 10.831 14.859 18.884 2.688 8.063 2.71 18.877-1.378 35.221l.97.243c4.109-16.427 4.131-27.458 1.357-35.78-2.778-8.333-8.335-13.869-15.184-19.349l-.624.781zm13.966 53.726H189.79v1h27.312v-1zm-27.812.5v27.312h1v-27.312h-1zm.379 26.827c-16.343 4.088-27.158 4.066-35.221 1.378-8.053-2.685-13.439-8.054-18.883-14.86l-.781.625c5.479 6.849 11.015 12.406 19.348 15.184 8.322 2.774 19.354 2.752 35.78-1.357l-.243-.97zm-54.885-13.482c-5.444 6.806-10.831 12.175-18.884 14.86-8.063 2.688-18.878 2.71-35.221-1.378l-.243.97c16.426 4.109 27.458 4.131 35.78 1.357 8.333-2.778 13.869-8.335 19.349-15.184l-.781-.625zm-53.726 13.967l-.001-27.309h-1v27.309h1zm-.501-27.809H56.518v1h24.039v-1zm-23.554.379c-4.088-16.344-4.066-27.158-1.378-35.221 2.685-8.053 8.054-13.44 14.86-18.884l-.625-.781c-6.85 5.479-12.406 11.016-15.184 19.348-2.774 8.323-2.752 19.354 1.357 35.78l.97-.242zm13.481-54.886c-6.805-5.444-12.174-10.831-14.86-18.883-2.687-8.063-2.71-18.878 1.38-35.221l-.97-.243c-4.11 16.426-4.132 27.458-1.358 35.78 2.778 8.332 8.335 13.869 15.184 19.348l.624-.781zM56.518 81.061h24.038v-1H56.518v1zm24.538-.5V55.99h-1v24.57h1z" fill="#04412B"/><circle cx="403.77" cy="89.634" r="46.411" fill="#FBF9F0" stroke="#04412B"/><circle cx="579.686" cy="243.77" r="46.411" fill="#FBF9F0" stroke="#04412B"/></svg>
